X:157
T:Young Tom Ennis
L:1/8
R:Jig
M:6/8
K:Dmix
A2B |: cBA BcB | AGE GAB | cBA Bed | BAA A2B |
cBA BcB | AGE GAB | cde dBG | BAA A3 :|
|: gfe age | dBG GBd | gfe agf | efg a3 |
[1 gfe age | dBG GAB | cBA Bed | BAA A3 :|]
[2 gab age | dBG GAB | cBA Bed | BAA A3 |]

